X:46
T:Barbatesc din jeud
O:rumania
M:4/4
L:1/8
Q:1/4=138
K:C
V:1
c de e/d/c de2 |dd/c/ Bc BB/A/ A2 :|EE EE cB/A/ A2 |EE Ed cB/A/ A2  |:
d2 cc/B/ AA/B/ c/B/A |d2 cc/B/ AA/E/ A2 :|cd ec d4 |cd ed G4 |
cd ed gg/f/ ee/d/ |gg/f/ gg/f/ g/a/g/f/ ee/d/ |gg/f/ ee/d/ c/d/c/B/ AA |GG GA/B/ c/d/e/f/ gg |
gg/f/ ee/d/ c/d/c/B/ AA/G/ |cc/B/ BB/A/ A2 |]





